build/img/svg/service2.svg

<svg width="44" height="48" viewBox="0 0 44 48" fill="none" xmlns="http://www.w3.org/2000/svg">
<g clip-path="url(#clip0)">
<path d="M43.5945 15.9319C43.341 13.4809 41.5161 10.2638 39.5899 8.78298C39.5899 8.78298 36.6498 6.58723 33 4.44255C29.3502 2.24681 26.0046 0.765957 26.0046 0.765957C24.8894 0.255319 23.4194 0 22 0C20.53 0 19.0599 0.255319 17.9954 0.765957C17.9954 0.765957 14.7005 2.24681 11 4.44255C7.35023 6.6383 4.41014 8.78298 4.41014 8.78298C2.43318 10.2638 0.658986 13.4809 0.40553 15.9319C0.40553 15.9319 0 19.6085 0 24C0 28.3404 0.40553 32.0681 0.40553 32.0681C0.658986 34.5191 2.48387 37.7362 4.41014 39.217C4.41014 39.217 7.35023 41.4128 11 43.6085C14.6498 45.8043 17.9954 47.2851 17.9954 47.2851C19.1106 47.7957 20.5806 48.0511 22 48.0511C23.47 48.0511 24.9401 47.7957 26.0046 47.2851C26.0046 47.2851 29.2995 45.8043 33 43.6085C36.6498 41.4128 39.5899 39.217 39.5899 39.217C41.5668 37.7362 43.341 34.5191 43.5945 32.0681C43.5945 32.0681 44 28.3915 44 24C44 19.6596 43.5945 15.9319 43.5945 15.9319ZM41.5668 31.8128C41.3641 33.7532 39.8433 36.4085 38.3733 37.5319C38.3226 37.5319 35.4839 39.6766 31.9862 41.7702C28.4885 43.8638 25.2442 45.3447 25.1935 45.3447C24.3825 45.7021 23.2166 45.9064 22 45.9064C20.7834 45.9064 19.6175 45.7021 18.8064 45.3447C18.7558 45.3447 15.5622 43.8638 12.0138 41.7702C8.51613 39.6766 5.62673 37.5319 5.62673 37.5319C4.10599 36.4085 2.63594 33.7021 2.43318 31.8128C2.38249 31.8128 2.02765 28.1872 2.02765 24C2.02765 19.8128 2.38249 16.1872 2.38249 16.1872C2.58525 14.2468 4.10599 11.5915 5.57604 10.4681C5.62673 10.4681 8.46544 8.3234 11.9631 6.22979C15.4608 4.13617 18.7051 2.65532 18.7558 2.65532C19.6175 2.24681 20.7834 2.04255 22 2.04255C23.2166 2.04255 24.3825 2.24681 25.1935 2.60426C25.2442 2.60426 28.4378 4.08511 31.9862 6.17872C35.4839 8.27234 38.3733 10.417 38.3733 10.417C39.894 11.5404 41.4147 14.2468 41.5668 16.1362C41.5668 16.1872 41.9217 19.7617 41.9217 23.9489C41.9723 28.1872 41.5668 31.8128 41.5668 31.8128Z" fill="#2B7DB0"/>
<path d="M30.212 13.583C28.5392 12.5617 21.8479 12.5617 21.7972 12.5617C21.7465 12.5617 15.0553 12.5617 13.3825 13.583C12.0138 14.4 10.3917 17.9234 9.63133 20.834C8.82027 23.8979 9.42857 28.2894 9.63133 29.5149C9.68202 29.8723 9.8341 30.1277 10.1889 30.383V33.9064C10.1889 34.4681 10.6452 34.9277 11.2028 34.9277H15.3088C15.8664 34.9277 16.3226 34.4681 16.3226 33.9064V31.5574C18.1982 31.7106 20.2258 31.8128 21.8479 31.8128C23.47 31.8128 25.4977 31.7106 27.3733 31.5574V33.9064C27.3733 34.4681 27.8295 34.9277 28.3871 34.9277H32.4424C33 34.9277 33.4562 34.4681 33.4562 33.9064V30.383C33.8111 30.1277 33.9631 29.8723 34.0138 29.5149C34.2166 28.2383 34.8249 23.8979 34.0138 20.834C33.2028 17.9234 31.5806 14.4 30.212 13.583ZM14.3963 15.3192C14.9539 14.9617 18.2488 14.6043 21.7972 14.6043C25.3456 14.6043 28.6405 15.0128 29.1981 15.3192C29.6037 15.5745 30.6682 17.3106 31.5299 19.6596C29.553 19.2511 25.8018 18.5362 21.7972 18.5362C17.8433 18.5362 14.0415 19.2511 12.0645 19.6596C12.9263 17.3106 13.9908 15.5745 14.3963 15.3192ZM14.2442 32.8851H12.1659V31.0468C12.7235 31.1489 13.4332 31.2511 14.2442 31.3532V32.8851ZM31.4286 32.8851H29.3502V31.3532C30.212 31.2511 30.871 31.1489 31.4286 31.0468V32.8851ZM32.0875 28.8C30.7696 29.2596 25.6498 29.7702 21.7972 29.7702C17.9954 29.7702 12.8249 29.2596 11.5069 28.8C11.2028 26.6553 11.0507 23.8979 11.4055 21.9064C12.3687 21.6511 16.9816 20.5787 21.7465 20.5787C26.5115 20.5787 31.1244 21.7021 32.0875 21.9064C32.5438 23.8979 32.3917 26.6553 32.0875 28.8Z" fill="#2B7DB0"/>
<path d="M29.4009 26.349C30.2407 26.349 30.9216 25.6631 30.9216 24.8171C30.9216 23.971 30.2407 23.2852 29.4009 23.2852C28.561 23.2852 27.8801 23.971 27.8801 24.8171C27.8801 25.6631 28.561 26.349 29.4009 26.349Z" fill="#2B7DB0"/>
<path d="M14.1936 26.349C15.0335 26.349 15.7143 25.6631 15.7143 24.8171C15.7143 23.971 15.0335 23.2852 14.1936 23.2852C13.3537 23.2852 12.6729 23.971 12.6729 24.8171C12.6729 25.6631 13.3537 26.349 14.1936 26.349Z" fill="#2B7DB0"/>
</g>
<defs>
<clipPath id="clip0">
<rect width="44" height="48" fill="white"/>
</clipPath>
</defs>
</svg>

<svg width="44" height="48" fill="none" xmlns="http://www.w3.org/2000/svg"><g clip-path="url(#clip0)" fill="#2B7DB0"><path d="M43.594 15.932c-.253-2.451-2.078-5.668-4.004-7.149 0 0-2.94-2.196-6.59-4.34C29.35 2.247 26.005.766 26.005.766 24.889.256 23.419 0 22 0c-1.47 0-2.94.255-4.005.766 0 0-3.295 1.48-6.995 3.677-3.65 2.195-6.59 4.34-6.59 4.34-1.977 1.48-3.75 4.698-4.004 7.149 0 0-.406 3.676-.406 8.068 0 4.34.406 8.068.406 8.068.253 2.451 2.078 5.668 4.004 7.149 0 0 2.94 2.196 6.59 4.392a71.16 71.16 0 006.995 3.676c1.116.51 2.586.766 4.005.766 1.47 0 2.94-.255 4.005-.766 0 0 3.294-1.48 6.995-3.676a88.995 88.995 0 006.59-4.392c1.977-1.48 3.751-4.698 4.004-7.149 0 0 .406-3.676.406-8.068 0-4.34-.406-8.068-.406-8.068zm-2.027 15.88c-.203 1.941-1.724 4.596-3.194 5.72-.05 0-2.89 2.145-6.387 4.238-3.498 2.094-6.742 3.575-6.793 3.575-.81.357-1.976.561-3.193.561s-2.383-.204-3.194-.561c-.05 0-3.244-1.481-6.792-3.575-3.498-2.093-6.387-4.238-6.387-4.238-1.521-1.123-2.991-3.83-3.194-5.72-.05 0-.405-3.625-.405-7.812s.354-7.813.354-7.813c.203-1.94 1.724-4.596 3.194-5.719.05 0 2.89-2.145 6.387-4.238 3.498-2.094 6.742-3.575 6.793-3.575.861-.408 2.027-.612 3.244-.612s2.383.204 3.194.561c.05 0 3.244 1.481 6.792 3.575a87.03 87.03 0 016.387 4.238c1.521 1.123 3.042 3.83 3.194 5.72 0 .05.355 3.625.355 7.812.05 4.238-.355 7.864-.355 7.864z"/><path d="M30.212 13.583c-1.673-1.021-8.364-1.021-8.415-1.021-.05 0-6.742 0-8.415 1.021-1.368.817-2.99 4.34-3.75 7.251-.812 3.064-.203 7.455 0 8.68.05.358.202.614.557.869v3.523a1.02 1.02 0 001.014 1.022h4.106a1.02 1.02 0 001.014-1.022v-2.349c1.875.154 3.903.256 5.525.256 1.622 0 3.65-.102 5.525-.256v2.35a1.02 1.02 0 001.014 1.02h4.055a1.02 1.02 0 001.014-1.02v-3.524c.355-.255.507-.51.558-.868.203-1.277.81-5.617 0-8.681-.811-2.91-2.433-6.434-3.802-7.251zm-15.816 1.736c.558-.357 3.853-.715 7.401-.715 3.549 0 6.843.409 7.401.715.406.255 1.47 1.992 2.332 4.34-1.977-.408-5.728-1.123-9.733-1.123-3.954 0-7.756.715-9.732 1.124.861-2.35 1.926-4.085 2.331-4.34zm-.152 17.566h-2.078v-1.838c.557.102 1.267.204 2.078.306v1.532zm17.185 0H29.35v-1.532a32.877 32.877 0 002.079-.306v1.838zm.659-4.085c-1.318.46-6.438.97-10.29.97-3.803 0-8.973-.51-10.291-.97-.304-2.145-.456-4.902-.101-6.894.963-.255 5.576-1.327 10.34-1.327 4.766 0 9.378 1.123 10.341 1.327.457 1.992.305 4.75 0 6.894z"/><path d="M29.4 26.349c.84 0 1.522-.686 1.522-1.532s-.681-1.532-1.521-1.532c-.84 0-1.52.686-1.52 1.532s.68 1.532 1.52 1.532zm-15.206 0c.84 0 1.52-.686 1.52-1.532s-.68-1.532-1.52-1.532-1.521.686-1.521 1.532.68 1.532 1.52 1.532z"/></g><defs><clipPath id="clip0"><path fill="#fff" d="M0 0h44v48H0z"/></clipPath></defs></svg>
